X:1
T:Title
%%score ( 1 2 ) ( 3 4 )
L:1/8
Q:1/4=68
M:6/8
K:Bb
V:1 treble nm="Strings 1, Soprano"
V:2 treble 
V:3 bass nm="Strings 1, Bass"
V:4 bass 
V:1
 [Fd][Fd][Fd] [Fd][Ec][DB] | [DF]3 .[B,D]3 | [Fd][Fd][Fd] [FB][EA][DB] | [Fc]6 | %4
w: 1.~Dost~ Thy~ soul~ ran somed~ from~|E gypt,~|Yet~ in~ the~ wil der ness~|stay?~|
 [Fd][Fc][FB] [Gc][GB][EG] | [DF]3 .[FB]3 | [Fc][Fc][Fc] [Fd][Fd][Ec] | [DB]6 | [Fd]3 [DB]2 [EG] | %9
w: Ca naan's~ fair~ land~ is~ be|fore~ thee,~|Cross~ o ver~ Jor dan~ to|day.~||
 [DF]3 .[B,D]3 | [Fd][Fd][Fd] [FB][EA][DB] | [Fc]6 | [Fd]3 [DB]2 [DF] | [EG]3 .[EB]3 | %14
w: |||||
 [=Ec][Ec][Ec] [Fd][Fd][_Ec] | B6 |] %16
w: ||
V:2
 x6 | x6 | x6 | x6 | x6 | x6 | x6 | x6 | x6 | x6 | x6 | x6 | x6 | x6 | x6 | D2 E .D3 |] %16
V:3
 [B,,B,][B,,B,][B,,B,] [B,,B,][B,,B,][B,,B,] | [B,,B,]3 .[B,,F,]3 | %2
 [B,,B,][B,,B,][B,,B,] [D,B,][C,F,][B,,F,] | [F,A,]6 | [B,,B,][C,A,][D,B,] [E,B,][E,B,][E,B,] | %5
 [B,,B,]3 .[D,B,]3 | [F,A,][F,A,][F,A,] [F,B,][F,B,][F,A,] | [B,,B,]6 | %8
 [B,,B,][B,,B,][B,,B,] [B,,F,][B,,F,][B,,B,] | [B,,B,][B,,B,][B,,B,] .[B,,F,]3 | %10
 [B,,B,][B,,B,][B,,B,] [D,B,][C,F,][B,,F,] | [F,A,]6 | %12
 [B,,B,][B,,B,][B,,B,] [B,,F,][B,,F,][B,,B,] | [E,B,][E,B,][E,B,] .[E,G,]3 | %14
 [C,G,][C,G,][C,B,] [F,B,][F,B,][F,A,] | B,2 G, .F,3 |] %16
V:4
 x6 | x6 | x6 | x6 | x6 | x6 | x6 | x6 | x6 | x6 | x6 | x6 | x6 | x6 | x6 | B,,6 |] %16

